assets/images/icons/src/cubes.svg

<?xml version="1.0" encoding="utf-8"?>
<!-- Generated by IcoMoon.io -->
<!DOCTYPE svg PUBLIC "-//W3C//DTD SVG 1.1//EN" "http://www.w3.org/Graphics/SVG/1.1/DTD/svg11.dtd">
<svg version="1.1" xmlns="http://www.w3.org/2000/svg" xmlns:xlink="http://www.w3.org/1999/xlink" width="17" height="14" viewBox="0 0 17 14">
<path fill="#444444" d="M5 12.75l3-1.5v-2.453l-3 1.281v2.672zM4.5 9.203l3.156-1.352-3.156-1.352-3.156 1.352zM13 12.75l3-1.5v-2.453l-3 1.281v2.672zM12.5 9.203l3.156-1.352-3.156-1.352-3.156 1.352zM9 6.914l3-1.289v-2.078l-3 1.281v2.086zM8.5 3.953l3.445-1.477-3.445-1.477-3.445 1.477zM17 8v3.25q0 0.281-0.148 0.523t-0.406 0.367l-3.5 1.75q-0.195 0.109-0.445 0.109t-0.445-0.109l-3.5-1.75q-0.039-0.016-0.055-0.031-0.016 0.016-0.055 0.031l-3.5 1.75q-0.195 0.109-0.445 0.109t-0.445-0.109l-3.5-1.75q-0.258-0.125-0.406-0.367t-0.148-0.523v-3.25q0-0.297 0.168-0.547t0.441-0.375l3.391-1.453v-3.125q0-0.297 0.168-0.547t0.441-0.375l3.5-1.5q0.18-0.078 0.391-0.078t0.391 0.078l3.5 1.5q0.273 0.125 0.441 0.375t0.168 0.547v3.125l3.391 1.453q0.281 0.125 0.445 0.375t0.164 0.547z"></path>
</svg>

<svg xmlns="http://www.w3.org/2000/svg" width="17" height="14" viewBox="0 0 17 14"><path fill="#444" d="M5 12.75l3-1.5V8.797l-3 1.281v2.672zm-.5-3.547l3.156-1.352L4.5 6.499 1.344 7.851zM13 12.75l3-1.5V8.797l-3 1.281v2.672zm-.5-3.547l3.156-1.352L12.5 6.499 9.344 7.851zM9 6.914l3-1.289V3.547L9 4.828v2.086zm-.5-2.961l3.445-1.477L8.5.999 5.055 2.476zM17 8v3.25q0 .281-.148.523t-.406.367l-3.5 1.75q-.195.109-.445.109t-.445-.109l-3.5-1.75q-.039-.016-.055-.031-.016.016-.055.031l-3.5 1.75q-.195.109-.445.109t-.445-.109l-3.5-1.75q-.258-.125-.406-.367t-.148-.523V8q0-.297.168-.547t.441-.375l3.391-1.453V2.5q0-.297.168-.547t.441-.375l3.5-1.5Q8.291 0 8.502 0t.391.078l3.5 1.5q.273.125.441.375t.168.547v3.125l3.391 1.453q.281.125.445.375t.164.547z"/></svg>
